img/link-icon.svg

<svg width="22" height="22" viewBox="0 0 22 22" fill="none" xmlns="http://www.w3.org/2000/svg">
<path d="M18.4609 22H0.451644C0.201123 22 0 21.7928 0 21.5427V3.19389C0 2.94024 0.201123 2.7366 0.451644 2.7366H12.9812C13.2318 2.7366 13.4329 2.94024 13.4329 3.19389C13.4329 3.44755 13.2318 3.65119 12.9812 3.65119H0.903288V21.0854H18.0128V8.6278C18.0128 8.37415 18.214 8.17051 18.4645 8.17051C18.715 8.17051 18.9161 8.37415 18.9161 8.6278V21.5427C18.9126 21.7928 18.7115 22 18.4609 22Z" fill="white"/>
<path d="M21.5483 7.93115C21.2978 7.93115 21.0967 7.72751 21.0967 7.47386V0.914583H14.5055C14.255 0.914583 14.0539 0.710945 14.0539 0.457291C14.0539 0.203638 14.2585 0 14.5055 0H21.5448C21.7953 0 21.9964 0.203638 21.9964 0.457291V7.47743C22 7.72751 21.7953 7.93115 21.5483 7.93115Z" fill="white"/>
<path d="M9.70327 12.6291C9.58684 12.6291 9.4704 12.5827 9.38218 12.4933C9.20576 12.3147 9.20929 12.0253 9.38571 11.8467L20.7933 0.407269C20.9697 0.22864 21.2555 0.232213 21.4319 0.410842C21.6083 0.589471 21.6048 0.878851 21.4284 1.05748L10.0208 12.4969C9.93262 12.5862 9.81971 12.6291 9.70327 12.6291Z" fill="white"/>
</svg>

<svg width="22" height="22" fill="none" xmlns="http://www.w3.org/2000/svg"><path d="M18.46 22H.453A.455.455 0 010 21.543V3.193c0-.253.201-.456.452-.456h12.53c.25 0 .45.203.45.457a.453.453 0 01-.45.457H.902v17.434h17.11V8.628c0-.254.201-.457.451-.457.251 0 .452.203.452.457v12.915a.46.46 0 01-.455.457zM21.548 7.931a.453.453 0 01-.451-.457V.914h-6.592a.453.453 0 01-.451-.457c0-.253.204-.457.451-.457h7.04c.25 0 .451.204.451.457v7.02a.45.45 0 01-.448.454z" fill="#fff"/><path d="M9.703 12.63a.451.451 0 01-.32-.137.461.461 0 01.003-.646L20.793.407a.448.448 0 01.639.004.461.461 0 01-.004.646l-11.407 11.44a.44.44 0 01-.318.132z" fill="#fff"/></svg>
